X: 1
T:BWV 842
C:Johann Sebastian Bach
Z:Transcribed by Frank Nordberg - http://www.musicaviva.com

V:1 Program 1 6 up %Harpsichord
V:2 Program 1 6 merge down %Harpsichord
V:3 Program 1 6 bass %Harpsichord
M:3/4
L:1/8
Q:1/4=104

K:G
V:1
D2EF/G/ FG/A/|PG2-GA/B/ AB/c/|BFGDEG|PC4B,2|
V:2
B,2CB,A,C|MB,A,B,DCE|D2B,4|A,4G,2|
V:3
G,6-|G,6-|G,4G,2-|G,2F,2G,2|

V:1
ED/C/ DC/B,/ CB,/A,/|DC/B,/ CB,/A,/ B,A,/G,/|F,G,MG,3F,/G,/|A,G,F,E,D,2|
V:2
x4x2|x4G,,A,,/B,,/|A,,B,,/C,/B,,C,/D,/G,,A,,/B,,/|D,,2D,3C,|
V:3
C,G,B,,G,A,,G,|B,,G,A,,G,x2|x4x2|x4x2|

V:1
D2EF/G/ FG/A/|PG2GA/B/ AB/c/|BFGDEG|MC4B,2|
V:2
B,,C,/D,/ C,D,/E,/ A,,B,,/C,/|B,,C,/D,/x4|x4x2|x4x2|
V:3
x4x2|x2E,F,/G,/ F,G,/A,/|G,A,B,G,CB,|A,E,F,D,G,B,,|

V:1
EF/G/ AB/c/ FG/A/|DE/F/ GA/B/ EF/G/|CD/E/A,3G,|G,6:|
V:2
C,2-C,D,/E,/ A,,B,,/C,/|B,,2-B,,C,/D,/ C,D,/E,/|A,,B,,/C,/ D,C,D,D,,|G,,B,,D,B,,G,,2:|
V:3
x4x2|x4x2|x4x2|x4x2:|

V:1
|:B2-BA/G/ FG/E/|^D2-DE/F/ GA/B/|cB/A/ ^de/f/ Bc/A/|MG3FE2|
V:2
|:z2A,B,CA,|zA,B,C-CC-|CCB,A,G,F,|E,^D,E,B,,G,,B,,|
V:3
|:G,6|F,4E,2|^D,6|x4x2|

V:1
^c2-cd/e/ ^AB/c/|F2-F^G/^A/ B^c/d/|ef/g/M^c3B|B6|
V:2
E,,E,/=D,/ E,F,G,E,|^A,4z2|G,E,F,E,F,F,,|x4x2|
V:3
x4x2|zG,F,E,D,B,|x4x2|B,,D,F,D,B,,D,|

V:1
D2DE/=F/ EF/D/|MC3B,CE|A3C B,C/D/|A,2G,F,E,D,|
V:2
^G,,B,,E,B,,G,,E,|x4x2|x4x2|D,2A,,2C,2|
V:3
x4x2|A,,C,E,=G,^F,E,|F,G,/A,/ D,E,/F,/ G,A,/B,/|x4x2|

V:1
G,2-G,A,/B,/ CD/E/|F,G,/A,/ B,C/D/ EF/G/|AF/G/A,3G,|G,6:|]
V:2
B,,C,/D,/x2A,,B,,/C,/|x2=G,,A,,/B,,/C,2-|C,B,,/A,,/D,C,D,D,,|zD,B,,4:|]
V:3
x2E,F,/G,/x2|D,E,/F,/x4|x4x2|G,,3D,,G,,,2:|]

